svgs/careem.svg

<svg width="192" height="192" viewBox="0 0 192 192" fill="none" xmlns="http://www.w3.org/2000/svg">
<path d="M65.9168 69.599C78.1221 69.599 88.0164 60.0626 88.0164 48.2989C88.0164 36.5352 78.1221 26.9988 65.9168 26.9988C53.7115 26.9988 43.8171 36.5352 43.8171 48.2989C43.8171 60.0626 53.7115 69.599 65.9168 69.599Z" stroke="black" stroke-width="12"/>
<path d="M124.004 22C124.004 22 148.016 26.8667 163.774 46.3006C155.07 53.682 142.372 64.9885 142.372 64.9885C142.372 64.9885 132.415 52.5031 116.722 49.448C123.875 22.4489 124.003 22.001 124.003 22.001L124.004 22Z" stroke="black" stroke-width="12" stroke-linejoin="round"/>
<path d="M56.7784 94.6087C57.12 101.804 58.9376 112.566 66.4293 122.284C70.0972 127.042 75.0641 131.551 82.0006 135.268C103.106 146.578 128.651 140.622 141.932 124.038L164.87 142.87C164.87 142.87 145.741 166.038 117.217 169.328C102.127 171.068 84.0873 169.895 67.0282 160.209C57.2502 154.657 47.3301 146.598 39.4799 134.054C35.5865 127.833 33.8196 123.676 32.2136 119.19C29.6204 111.948 28.6064 105.643 28.4306 101.844C28.2061 96.9745 27.8883 94.9493 28.0392 94.7994C28.2379 94.6017 42.7395 94.2799 51.0814 94.2631C55.0472 94.2551 56.7784 93.982 56.7923 94.5739L56.7784 94.6087Z" stroke="black" stroke-width="12" stroke-linejoin="round"/>
</svg>

<svg width="192" height="192" fill="none" xmlns="http://www.w3.org/2000/svg"><path d="M65.917 69.599c12.205 0 22.1-9.536 22.1-21.3 0-11.764-9.895-21.3-22.1-21.3-12.206 0-22.1 9.536-22.1 21.3 0 11.764 9.895 21.3 22.1 21.3Z" stroke="#000" stroke-width="12"/><path d="M124.004 22s24.012 4.867 39.77 24.3c-8.704 7.382-21.402 18.689-21.402 18.689s-9.957-12.486-25.65-15.541c7.153-27 7.281-27.447 7.281-27.447l.001-.001ZM56.778 94.609c.342 7.195 2.16 17.957 9.651 27.675 3.668 4.758 8.635 9.267 15.572 12.984 21.105 11.31 46.65 5.354 59.931-11.23l22.938 18.832s-19.129 23.168-47.653 26.458c-15.09 1.74-33.13.567-50.189-9.119-9.778-5.552-19.698-13.611-27.548-26.155-3.893-6.221-5.66-10.378-7.266-14.864-2.594-7.242-3.608-13.547-3.783-17.346-.225-4.87-.543-6.895-.392-7.045.199-.197 14.7-.52 23.042-.536 3.966-.008 5.697-.281 5.711.31l-.014.036Z" stroke="#000" stroke-width="12" stroke-linejoin="round"/></svg>
